food_production/svg/corn_01.svg

<svg xmlns="http://www.w3.org/2000/svg" xmlns:xlink="http://www.w3.org/1999/xlink" version="1.1" baseProfile="tiny" x="0px" y="0px" viewBox="0 0 100 125" xml:space="preserve"><g><g><path fill-rule="evenodd" fill="#000000" d="M72.3,44.3c-10.9,0.6-12.1,12.7-13.1,23.3c-0.9,9.6-1.8,18.6-9.2,18.6    c-7.1,0-8.1-9-9.1-18.6C39.7,57,38.4,44.9,27.7,44.3c1.1-1.2,4.3-3.8,7.9-3.8c2.2,0,4.3,0.9,6.1,2.8c3.4,3.5,6,10.1,7.6,19.7    l0.6,3.3l0.6-3.3c1.6-9.6,4.2-16.2,7.6-19.7c1.8-1.9,3.9-2.8,6.1-2.8C68,40.5,71.1,43,72.3,44.3z"/></g><g><path fill-rule="evenodd" fill="#000000" d="M57.2,42.7C57.2,42.7,57.1,42.8,57.2,42.7c-0.3,0.3-0.5,0.6-0.7,0.8    c-0.1,0.1-0.2,0.2-0.2,0.3c-0.1,0.1-0.2,0.2-0.3,0.4l0,0c-0.1,0.1-0.2,0.3-0.3,0.4c-0.2,0.2-0.3,0.4-0.5,0.7    c-0.1,0.1-0.1,0.2-0.2,0.3c-0.1,0.2-0.3,0.5-0.4,0.7c-0.1,0.1-0.2,0.3-0.2,0.4l0,0c-0.1,0.2-0.2,0.3-0.3,0.5    c-0.1,0.2-0.2,0.3-0.2,0.5c-0.1,0.1-0.1,0.3-0.2,0.4c-0.2,0.4-0.3,0.8-0.5,1.1c-0.1,0.2-0.2,0.4-0.2,0.5c0,0.1-0.1,0.2-0.1,0.3    c-0.1,0.1-0.1,0.3-0.2,0.4c-0.1,0.3-0.3,0.7-0.4,1c-0.1,0.2-0.1,0.4-0.2,0.6c-0.1,0.2-0.1,0.4-0.2,0.6c-0.3,0.9-0.6,1.8-0.8,2.7    c-0.1,0.2-0.1,0.4-0.2,0.6v0c-0.1,0.2-0.1,0.4-0.2,0.7c0,0.1,0,0.2-0.1,0.3c0,0.2-0.1,0.3-0.1,0.5c0,0.1,0,0.2-0.1,0.3    c-0.1,0.6-0.3,1.3-0.4,1.9c-0.1-0.7-0.3-1.3-0.4-1.9c0-0.1,0-0.2-0.1-0.3c0-0.2-0.1-0.3-0.1-0.5c0-0.1,0-0.2-0.1-0.3    c-0.1-0.4-0.2-0.9-0.3-1.3c-0.3-1-0.5-1.9-0.8-2.7c-0.1-0.2-0.1-0.4-0.2-0.6c-0.2-0.6-0.4-1.1-0.6-1.6c-0.1-0.2-0.1-0.4-0.2-0.6    c-0.1-0.2-0.1-0.4-0.2-0.5c-0.1-0.2-0.2-0.4-0.2-0.5c-0.1-0.2-0.2-0.3-0.2-0.5c-0.1-0.2-0.1-0.3-0.2-0.5c-0.1-0.3-0.3-0.5-0.4-0.8    c-0.1-0.1-0.1-0.2-0.2-0.4l0,0c-0.1-0.1-0.2-0.3-0.2-0.4c-0.2-0.3-0.4-0.7-0.6-1c-0.1-0.1-0.1-0.2-0.2-0.3    c-0.1-0.2-0.2-0.3-0.3-0.4c-0.1-0.1-0.2-0.3-0.3-0.4c-0.1-0.1-0.2-0.3-0.3-0.4c-0.1-0.1-0.2-0.2-0.3-0.3c-0.1-0.1-0.2-0.2-0.3-0.3    c-0.1-0.1-0.2-0.2-0.3-0.3c0,0-0.1-0.1-0.1-0.1C45,23,48.4,13.7,50,13.7C51.6,13.7,55,23,57.2,42.7z"/></g></g><text x="0" y="115" fill="#000000" font-size="5px" font-weight="bold" font-family="'Helvetica Neue', Helvetica, Arial-Unicode, Arial, Sans-serif">Created by Philip Glenn</text><text x="0" y="120" fill="#000000" font-size="5px" font-weight="bold" font-family="'Helvetica Neue', Helvetica, Arial-Unicode, Arial, Sans-serif">from the Noun Project</text></svg>

<?xml version="1.0" encoding="UTF-8" standalone="no"?>
<svg
   xmlns:dc="http://purl.org/dc/elements/1.1/"
   xmlns:cc="http://creativecommons.org/ns#"
   xmlns:rdf="http://www.w3.org/1999/02/22-rdf-syntax-ns#"
   xmlns:svg="http://www.w3.org/2000/svg"
   xmlns="http://www.w3.org/2000/svg"
   height="72.5"
   width="44.599998"
   id="svg16"
   xml:space="preserve"
   viewBox="0 0 44.599998 72.5"
   y="0px"
   x="0px"
   version="1.1"><metadata
     id="metadata22"><rdf:RDF><cc:Work
         rdf:about=""><dc:format>image/svg+xml</dc:format><dc:type
           rdf:resource="http://purl.org/dc/dcmitype/StillImage" /><dc:title></dc:title></cc:Work></rdf:RDF></metadata><defs
     id="defs20" /><g
     transform="translate(-27.7,-13.7)"
     id="g10"><g
       id="g4"><path
         style="fill:#000000;fill-rule:evenodd"
         id="path2"
         d="M 72.3,44.3 C 61.4,44.9 60.2,57 59.2,67.6 58.3,77.2 57.4,86.2 50,86.2 42.9,86.2 41.9,77.2 40.9,67.6 39.7,57 38.4,44.9 27.7,44.3 c 1.1,-1.2 4.3,-3.8 7.9,-3.8 2.2,0 4.3,0.9 6.1,2.8 3.4,3.5 6,10.1 7.6,19.7 l 0.6,3.3 0.6,-3.3 c 1.6,-9.6 4.2,-16.2 7.6,-19.7 1.8,-1.9 3.9,-2.8 6.1,-2.8 3.8,0 6.9,2.5 8.1,3.8 z" /></g><g
       id="g8"><path
         style="fill:#000000;fill-rule:evenodd"
         id="path6"
         d="m 57.2,42.7 c 0,0 -0.1,0.1 0,0 -0.3,0.3 -0.5,0.6 -0.7,0.8 -0.1,0.1 -0.2,0.2 -0.2,0.3 -0.1,0.1 -0.2,0.2 -0.3,0.4 v 0 c -0.1,0.1 -0.2,0.3 -0.3,0.4 -0.2,0.2 -0.3,0.4 -0.5,0.7 -0.1,0.1 -0.1,0.2 -0.2,0.3 -0.1,0.2 -0.3,0.5 -0.4,0.7 -0.1,0.1 -0.2,0.3 -0.2,0.4 v 0 c -0.1,0.2 -0.2,0.3 -0.3,0.5 -0.1,0.2 -0.2,0.3 -0.2,0.5 -0.1,0.1 -0.1,0.3 -0.2,0.4 -0.2,0.4 -0.3,0.8 -0.5,1.1 -0.1,0.2 -0.2,0.4 -0.2,0.5 0,0.1 -0.1,0.2 -0.1,0.3 -0.1,0.1 -0.1,0.3 -0.2,0.4 -0.1,0.3 -0.3,0.7 -0.4,1 -0.1,0.2 -0.1,0.4 -0.2,0.6 -0.1,0.2 -0.1,0.4 -0.2,0.6 -0.3,0.9 -0.6,1.8 -0.8,2.7 -0.1,0.2 -0.1,0.4 -0.2,0.6 v 0 c -0.1,0.2 -0.1,0.4 -0.2,0.7 0,0.1 0,0.2 -0.1,0.3 0,0.2 -0.1,0.3 -0.1,0.5 0,0.1 0,0.2 -0.1,0.3 -0.1,0.6 -0.3,1.3 -0.4,1.9 -0.1,-0.7 -0.3,-1.3 -0.4,-1.9 0,-0.1 0,-0.2 -0.1,-0.3 0,-0.2 -0.1,-0.3 -0.1,-0.5 0,-0.1 0,-0.2 -0.1,-0.3 C 49.2,56.2 49.1,55.7 49,55.3 48.7,54.3 48.5,53.4 48.2,52.6 48.1,52.4 48.1,52.2 48,52 47.8,51.4 47.6,50.9 47.4,50.4 47.3,50.2 47.3,50 47.2,49.8 47.1,49.6 47.1,49.4 47,49.3 46.9,49.1 46.8,48.9 46.8,48.8 46.7,48.6 46.6,48.5 46.6,48.3 46.5,48.1 46.5,48 46.4,47.8 46.3,47.5 46.1,47.3 46,47 45.9,46.9 45.9,46.8 45.8,46.6 v 0 C 45.7,46.5 45.6,46.3 45.6,46.2 45.4,45.9 45.2,45.5 45,45.2 44.9,45.1 44.9,45 44.8,44.9 44.7,44.7 44.6,44.6 44.5,44.5 44.4,44.4 44.3,44.2 44.2,44.1 44.1,44 44,43.8 43.9,43.7 43.8,43.6 43.7,43.5 43.6,43.4 43.5,43.3 43.4,43.2 43.3,43.1 43.2,43 43.1,42.9 43,42.8 c 0,0 -0.1,-0.1 -0.1,-0.1 2.1,-19.7 5.5,-29 7.1,-29 1.6,0 5,9.3 7.2,29 z" /></g></g><text
     style="font-weight:bold;font-size:5px;font-family:'Helvetica Neue', Helvetica, Arial-Unicode, Arial, Sans-serif;fill:#000000"
     id="text12"
     font-weight="bold"
     font-size="5px"
     y="115"
     x="0">Created by Philip Glenn</text>
<text
     style="font-weight:bold;font-size:5px;font-family:'Helvetica Neue', Helvetica, Arial-Unicode, Arial, Sans-serif;fill:#000000"
     id="text14"
     font-weight="bold"
     font-size="5px"
     y="120"
     x="0">from the Noun Project</text>
</svg>
